icon-themes/sifr_svg/cmd/sc_distributerows.svg

<svg viewBox="0 0 16 16" xmlns="http://www.w3.org/2000/svg"><path d="m0 1v5 7h4v-2h-2v-3h12v3h-2v2h4v-7-5zm2 2h3v3h-3zm4 0h4v3h-4zm5 0h3v3h-3zm-4 7v2.683594l-.28125-.371094c-.190301-.18267-.494728-.3125-.71875-.3125h-1v.412109.587891c0 .30945.0903.55232.28125.75.769594 1.016078 1.321099 1.524849 1.9394531 2.25h1.6152344l1.8828125-2.25c.19095-.19768.28125-.44055.28125-.75v-.587891-.412109h-1c-.256892 0-.528462.12983-.71875.3125l-.28125.371094v-2.683594z" fill="#555753"/></svg>

<svg xmlns="http://www.w3.org/2000/svg" viewBox="0 0 16 16">
  <path
     style="fill:#555753"
     d="M 0 1 L 0 6 L 0 13 L 4 13 L 4 11 L 2 11 L 2 8 L 14 8 L 14 11 L 12 11 L 12 13 L 16 13 L 16 6 L 16 1 L 0 1 z M 2 3 L 5 3 L 5 6 L 2 6 L 2 3 z M 6 3 L 10 3 L 10 6 L 6 6 L 6 3 z M 11 3 L 14 3 L 14 6 L 11 6 L 11 3 z M 7 10 L 7 12.683594 L 6.71875 12.3125 C 6.528449 12.12983 6.224022 12 6 12 L 5 12 L 5 12.412109 L 5 13 C 5 13.30945 5.0903 13.55232 5.28125 13.75 C 6.050844 14.766078 6.602349 15.274849 7.2207031 16 L 8.8359375 16 L 10.71875 13.75 C 10.9097 13.55232 11 13.30945 11 13 L 11 12.412109 L 11 12 L 10 12 C 9.743108 12 9.471538 12.12983 9.28125 12.3125 L 9 12.683594 L 9 10 L 7 10 z "
     />
</svg>
